symbols/be/PVA-{140}.svg

<?xml version="1.0" encoding="UTF-8" standalone="no"?>
<!-- Initially created with Inkscape, optimized by hand -->

<svg
   version="1.1"
   width="20"
   height="17.320995"
   id="svg1"
   xmlns="http://www.w3.org/2000/svg"
   xmlns:svg="http://www.w3.org/2000/svg">
  <defs
     id="defs1" />
  <path
     id="Fond"
     d="M 20,-1.2580566e-6 H 3.1098633e-6 L 10.000003,17.320999 Z"
     fill="#edd827"
     style="stroke-width:0.1" />
  <path
     d="m 8.4887321,9.2268437 v -6.389353 c 0,-0.106667 -0.032,-0.192001 -0.106667,-0.266668 -0.064,-0.07467 -0.362667,-0.149334 -0.501335,-0.01067 l -1.429337,1.429337 c -0.149334,0.149334 -0.096,0.426668 0.01067,0.533335 0.096,0.106667 0.352001,0.128001 0.490669,-0.01067 l 0.821335,-0.832003 v 5.557351 c 0,0.192001 0.170668,0.352001 0.362668,0.352001 0.192001,0 0.352001,-0.16 0.352001,-0.362668 z m 5.1520069,-1.418671 c 0,-0.192 -0.160001,-0.352001 -0.352002,-0.352001 h -0.714669 v -1.077337 c 0,-0.192 -0.16,-0.341334 -0.352001,-0.341334 -0.192,0 -0.362667,0.16 -0.362667,0.352001 v 1.06667 h -1.664006 l 1.301338,-4.554681 c 0.05333,-0.202667 -0.08533,-0.426668 -0.341335,-0.426668 -0.128,-0.01067 -0.298667,0.07467 -0.341334,0.234667 l -1.4400049,5.01335 c -0.032,0.138667 0.032,0.298667 0.096,0.341334 0.08533,0.07467 0.149333,0.106667 0.256,0.106667 H 11.8594 v 1.06667 c 0,0.192001 0.170667,0.352001 0.362667,0.352001 0.192001,0 0.352001,-0.16 0.352001,-0.352001 v -1.06667 h 0.714669 c 0.192001,0 0.352002,-0.170667 0.352002,-0.362668 z"
     id="text1"
     style="font-size:10.6667px;font-family:Isonorm;-inkscape-font-specification:'Isonorm, Normal';fill-rule:evenodd;stroke-width:0.08"
     aria-label="14" />
</svg>

<?xml version="1.0" encoding="UTF-8"?>
<svg xmlns="http://www.w3.org/2000/svg" xmlns:xlink="http://www.w3.org/1999/xlink" width="20" height="17.320995" viewBox="0 0 20 17.320995">
<path fill-rule="nonzero" fill="rgb(92.941176%, 84.705882%, 15.294118%)" fill-opacity="1" d="M 20 0 L 0 0 L 10 17.320312 Z M 20 0 "/>
<path fill-rule="evenodd" fill="rgb(0%, 0%, 0%)" fill-opacity="1" d="M 8.488281 9.226562 L 8.488281 2.835938 C 8.488281 2.730469 8.457031 2.644531 8.382812 2.570312 C 8.316406 2.496094 8.019531 2.421875 7.878906 2.558594 L 6.453125 3.988281 C 6.300781 4.140625 6.355469 4.417969 6.460938 4.523438 C 6.558594 4.628906 6.8125 4.652344 6.953125 4.511719 L 7.773438 3.679688 L 7.773438 9.238281 C 7.773438 9.429688 7.945312 9.589844 8.136719 9.589844 C 8.328125 9.589844 8.488281 9.429688 8.488281 9.226562 Z M 13.640625 7.808594 C 13.640625 7.617188 13.480469 7.457031 13.289062 7.457031 L 12.574219 7.457031 L 12.574219 6.378906 C 12.574219 6.1875 12.414062 6.039062 12.222656 6.039062 C 12.03125 6.039062 11.859375 6.199219 11.859375 6.390625 L 11.859375 7.457031 L 10.195312 7.457031 L 11.496094 2.902344 C 11.550781 2.699219 11.410156 2.476562 11.15625 2.476562 C 11.027344 2.464844 10.855469 2.550781 10.8125 2.710938 L 9.375 7.722656 C 9.34375 7.863281 9.40625 8.023438 9.46875 8.0625 C 9.554688 8.140625 9.621094 8.171875 9.726562 8.171875 L 11.859375 8.171875 L 11.859375 9.238281 C 11.859375 9.429688 12.03125 9.589844 12.222656 9.589844 C 12.414062 9.589844 12.574219 9.429688 12.574219 9.238281 L 12.574219 8.171875 L 13.289062 8.171875 C 13.480469 8.171875 13.640625 8 13.640625 7.808594 Z M 13.640625 7.808594 "/>
</svg>
